!!!COM: Mozart, Wolfgang Amadeus
!!!OTL: Musikalische Würfelspiele, Kontre-Tänze
!!!SCA: K<sup>6</sup> Anh. C30.01 (K<sup>3</sup> Anh. 294d)
**kern	**kern
*staff2	*staff2
*clefF4	*clefG2
*M2/4	*M2/4
*MM110	*MM110
*>[A,A1,A,A2,B]	*>[A,A1,A,A2,B]
*>norep[A,A2,B]	*>norep[A,A2,B]
*>A	*>A
=105	=105
4C	16cc
.	16b
.	16cc
.	16dd
4C	16ee
.	16dd
.	16ee
.	16ff
=152	=152
4C	8gg
.	16ccc
.	16gg
4r	8ee
.	8cc
=40	=40
8G	16ff
.	16ee
8GG	16dd
.	16cc
8GG	16b
.	16cc
8GG	16dd
.	16b
=37	=37
16C	8cc
16c	.
16B	8ee
16c	.
4C	4g
=77	=77
4D	8d
.	16f#
.	16a
4D	8dd
.	8ff#
=27	=27
4BB 4G	16aaQ
.	16gg
.	16ff#
.	16gg
4BB	16dd
.	16gg
.	16dd
.	16b
=73	=73
4C	8ee
.	8gg
4D	8ff#
.	8aa
=115	=115
*>A1	*>A1
4GG	4g 4b 4gg
16G	4r
16F	.
16E	.
16D	.
=115:|!	=115:|!
*>A2	*>A2
4GG	4g 4b 4gg
16GG	4r
16AA	.
16BB	.
16C#	.
=144||	=144||
*>B	*>B
4D	8d
.	16f#
.	16a
4D	8dd
.	8ff#
=133	=133
16BB	8dd
16D	.
16G	4gg
16D	.
16BB	.
16D	.
16G	8bb
16D	.
=138	=138
16C	8gg
16E	.
16G	4ee
16E	.
16C	.
16E	.
16G	8cc
16E	.
=19	=19
4GG	16dd
.	16b
.	16cc
.	16a
4r	16g
.	16gg
.	16ff
.	16dd
=134	=134
4C	16cc
.	16ee
.	16gg
.	16ee
4r	16cc
.	16g
.	16cc
.	16ee
=101	=101
16C	8gg
16G	.
16E	4ee
16G	.
16C	.
16G	.
16E	8cc
16G	.
=17	=17
4GG	16dd
.	16ee
.	16ff
.	16ee
4GG	16ff
.	16dd
.	16cc
.	16b
=98	=98
4C	4cc
4CC	4c
==	==
*-	*-
